packages/foundations/assets/icons/functional/images/technology/bug_14.svg

<svg width="14" height="14" viewBox="0 0 14 14" fill="none" xmlns="http://www.w3.org/2000/svg">
<g clip-path="url(#clip0_187_573)">
<path fill-rule="evenodd" clip-rule="evenodd" d="M5.50552 1.74915L6.17822 2.90835C6.44282 2.84395 6.71582 2.80055 7.00002 2.80055C7.27722 2.80055 7.54322 2.84115 7.80152 2.90205L8.50012 1.74005C8.69962 1.40895 9.12872 1.30255 9.46052 1.50065C9.79233 1.70015 9.89942 2.12995 9.69992 2.46175L9.07622 3.49915C9.75592 4.00385 10.2543 4.74095 10.4293 5.60055H11.9C12.2864 5.60055 12.6 5.91345 12.6 6.30055C12.6 6.68765 12.2864 7.00055 11.9 7.00055H10.5V7.70055H11.9C12.2864 7.70055 12.6 8.01345 12.6 8.40055C12.6 8.78765 12.2864 9.10055 11.9 9.10055H10.5C10.5 9.33995 10.4755 9.57445 10.4293 9.80055H11.9C12.2864 9.80055 12.6 10.1134 12.6 10.5005C12.6 10.8876 12.2864 11.2005 11.9 11.2005H9.78183C9.14272 12.0454 8.14032 12.6005 7.00002 12.6005C5.85972 12.6005 4.85452 12.0447 4.21542 11.1977C4.20982 11.1977 4.20562 11.2005 4.20002 11.2005H2.10002C1.71362 11.2005 1.40002 10.8876 1.40002 10.5005C1.40002 10.1134 1.71362 9.80055 2.10002 9.80055H3.57072C3.52452 9.57445 3.50002 9.33995 3.50002 9.10055H2.10002C1.71362 9.10055 1.40002 8.78765 1.40002 8.40055C1.40002 8.01345 1.71362 7.70055 2.10002 7.70055H3.50002V7.00055H2.10002C1.71362 7.00055 1.40002 6.68765 1.40002 6.30055C1.40002 5.91345 1.71362 5.60055 2.10002 5.60055H3.57072C3.74432 4.74795 4.23712 4.01645 4.90912 3.51105L4.29452 2.45195C4.10062 2.11805 4.21402 1.68895 4.54862 1.49505C4.88252 1.29905 5.31162 1.41455 5.50552 1.74915ZM9.10002 7.00055H4.90002V9.10055C4.90002 10.2583 5.84222 11.2005 7.00002 11.2005C8.15782 11.2005 9.10002 10.2583 9.10002 9.10055V7.00055ZM7.70002 8.40055C8.08642 8.40055 8.40002 8.71345 8.40002 9.10055C8.40002 9.48765 8.08642 9.80055 7.70002 9.80055H6.30002C5.91362 9.80055 5.60002 9.48765 5.60002 9.10055C5.60002 8.71345 5.91362 8.40055 6.30002 8.40055H7.70002ZM7.00002 4.20055C6.08862 4.20055 5.31862 4.78785 5.02882 5.60055H8.97122C8.68142 4.78785 7.91142 4.20055 7.00002 4.20055Z" fill="#1A1C1F"/>
</g>
<defs>
<clipPath id="clip0_187_573">
<rect width="14" height="14" fill="white"/>
</clipPath>
</defs>
</svg>

<svg xmlns="http://www.w3.org/2000/svg" width="14" height="14" fill="none"><g clip-path="url(#a)"><path fill="#1A1C1F" fill-rule="evenodd" d="m5.506 1.75.672 1.158A3.5 3.5 0 0 1 7 2.801c.277 0 .543.04.802.101L8.5 1.74a.7.7 0 0 1 1.2.722l-.624 1.037a3.5 3.5 0 0 1 1.353 2.102H11.9a.7.7 0 1 1 0 1.4h-1.4v.7h1.4a.7.7 0 1 1 0 1.4h-1.4q0 .359-.07.7h1.47a.7.7 0 1 1 0 1.4H9.782A3.48 3.48 0 0 1 7 12.6a3.48 3.48 0 0 1-2.785-1.403L4.2 11.2H2.1a.7.7 0 1 1 0-1.4h1.47a3.5 3.5 0 0 1-.07-.7H2.1a.7.7 0 1 1 0-1.4h1.4V7H2.1a.7.7 0 1 1 0-1.4h1.47a3.5 3.5 0 0 1 1.34-2.089l-.615-1.059a.7.7 0 0 1 1.21-.703M9.1 7H4.9v2.1c0 1.158.942 2.1 2.1 2.1s2.1-.942 2.1-2.1zM7.7 8.4a.7.7 0 1 1 0 1.4H6.3a.7.7 0 1 1 0-1.4zM7 4.2c-.911 0-1.681.588-1.971 1.4H8.97A2.1 2.1 0 0 0 7 4.2" clip-rule="evenodd"/></g><defs><clipPath id="a"><path fill="#fff" d="M0 0h14v14H0z"/></clipPath></defs></svg>
